X: 21634
T: CAULD KAIL IN ABERDEEN
O: Scottish air.
Q: "Andante."
%R: march, reel
B: W. Hamilton "Universal Tune-Book" Vol. 2 Glasgow 1846 p.163 #4
S: http://s3-eu-west-1.amazonaws.com/itma.dl.printmaterial/book_pdfs/hamiltonvol2web.pdf
Z: 2016 John Chambers <jc:trillian.mit.edu>
M: C
L: 1/8
K: D
% - - - - - - - - - - - - - - - - - - - - - - - - -
D2 |\
F2A2 d3B | (BA)(GF) {F}E2D2 | F2A2 d3B | A3F D2D2 |\
F2A2 d3B | (BA)(GF) {F}E2D2 | F2A2 (BcdB) | (A3F) D2 |]
A2 |\
~d3e f2d2 | g2e2 c2A2 | ~d3e (gf)(ed) | (e3c) A2A2 |\
d3e f2d2 | g2e2 {d}Hc2 (e/d/c/B/) | A3F (B>c)(d>B) | (A3F) D2 |]
% - - - - - - - - - - - - - - - - - - - - - - - - -

%%sep 1 1 500
%%sep 1 1 500

